assets/icon-plugin.svg

<svg fill="none" height="24" viewBox="0 0 24 24" width="24" xmlns="http://www.w3.org/2000/svg"><path d="m12 3c1.3807 0 2.5 1.11929 2.5 2.5 0 .47166-.1324.91476-.3613 1.29199-.056.09221-.0898.15753-.1123.20801h2.9736c.5523 0 1 .44772 1 1v1.88086c0 .32464-.1577.62894-.4229.81644-.2651.1874-.605.2343-.9111.1259-.1358-.048-.2749-.0732-.416-.0732-.6904 0-1.25.5597-1.25 1.25s.5596 1.25 1.25 1.25c.1389 0 .2778-.0253.416-.0742.3061-.1084.646-.0615.9111.126.2652.1874.4229.4917.4229.8164v1.8818c0 .5523-.4477 1-1 1h-2.9736c.0225.0505.0563.1158.1123.208.2289.3772.3613.8203.3613 1.292 0 1.3807-1.1193 2.5-2.5 2.5s-2.5-1.1193-2.5-2.5c0-.4717.13241-.9148.36133-1.292.05595-.0922.08977-.1575.1123-.208h-2.97363c-.55228 0-1-.4477-1-1v-1.8818l.00684-.1211c.03389-.2782.18415-.5314.41601-.6953.26518-.1875.60504-.2344.91113-.126.13825.0489.27714.0742.41602.0742l.12793-.0068c.58816-.0599 1.05542-.5271 1.11523-1.1153l.00684-.1279c0-.6471-.49183-1.1791-1.12207-1.2432l-.12793-.0068c-.14108 0-.28022.0252-.41602.0732-.30608.1084-.64599.0615-.91113-.1259-.26511-.1875-.42285-.4918-.42285-.81644v-1.88086c0-.55228.44772-1 1-1h2.97363c-.02253-.05048-.05635-.1158-.1123-.20801-.22892-.37723-.36133-.82033-.36133-1.29199 0-1.38071 1.1193-2.5 2.5-2.5zm0 1c-.8284 0-1.5.67157-1.5 1.5 0 .28327.0789.54789.2158.77344.1473.24275.2842.50414.2842.78808v.93848h-4v1.88086c.23483-.08311.4867-.13086.75-.13086 1.24263.00001 2.25 1.0074 2.25 2.25-.00001 1.2426-1.00737 2.25-2.25 2.25-.26342 0-.51508-.0487-.75-.1318v1.8818h4v.9385c0 .2839-.1369.5453-.2842.7881-.1369.2255-.2158.4901-.2158.7734 0 .8284.6716 1.5 1.5 1.5s1.5-.6716 1.5-1.5c0-.2833-.0789-.5479-.2158-.7734-.1473-.2428-.2842-.5042-.2842-.7881v-.9385h4v-1.8818c-.2349.0831-.4866.1318-.75.1318-1.2426 0-2.25-1.0074-2.25-2.25s1.0074-2.25 2.25-2.25c.2633 0 .5152.04775.75.13086v-1.88086h-4v-.93848c0-.28394.1369-.54533.2842-.78808.1369-.22555.2158-.49017.2158-.77344 0-.82843-.6716-1.5-1.5-1.5z" fill="#000"/></svg>

<svg width="24" height="24" viewBox="0 0 24 24" fill="none" xmlns="http://www.w3.org/2000/svg">
<path d="M12 3C13.3807 3 14.5 4.11929 14.5 5.5C14.5 5.97166 14.3676 6.41476 14.1387 6.79199C14.0827 6.8842 14.0489 6.94952 14.0264 7H17C17.5523 7 18 7.44772 18 8V9.88086C18 10.2055 17.8423 10.5098 17.5771 10.6973C17.312 10.8847 16.9721 10.9316 16.666 10.8232C16.5302 10.7752 16.3911 10.75 16.25 10.75C15.5596 10.75 15 11.3097 15 12C15 12.6903 15.5596 13.25 16.25 13.25C16.3889 13.25 16.5278 13.2247 16.666 13.1758C16.9721 13.0674 17.312 13.1143 17.5771 13.3018C17.8423 13.4892 18 13.7935 18 14.1182V16C18 16.5523 17.5523 17 17 17H14.0264C14.0489 17.0505 14.0827 17.1158 14.1387 17.208C14.3676 17.5852 14.5 18.0283 14.5 18.5C14.5 19.8807 13.3807 21 12 21C10.6193 21 9.5 19.8807 9.5 18.5C9.5 18.0283 9.63241 17.5852 9.86133 17.208C9.91728 17.1158 9.9511 17.0505 9.97363 17H7C6.44772 17 6 16.5523 6 16V14.1182L6.00684 13.9971C6.04073 13.7189 6.19099 13.4657 6.42285 13.3018C6.68803 13.1143 7.02789 13.0674 7.33398 13.1758C7.47223 13.2247 7.61112 13.25 7.75 13.25L7.87793 13.2432C8.46609 13.1833 8.93335 12.7161 8.99316 12.1279L9 12C9 11.3529 8.50817 10.8209 7.87793 10.7568L7.75 10.75C7.60892 10.75 7.46978 10.7752 7.33398 10.8232C7.0279 10.9316 6.68799 10.8847 6.42285 10.6973C6.15774 10.5098 6 10.2055 6 9.88086V8C6 7.44772 6.44772 7 7 7H9.97363C9.9511 6.94952 9.91728 6.8842 9.86133 6.79199C9.63241 6.41476 9.5 5.97166 9.5 5.5C9.5 4.11929 10.6193 3 12 3ZM12 4C11.1716 4 10.5 4.67157 10.5 5.5C10.5 5.78327 10.5789 6.04789 10.7158 6.27344C10.8631 6.51619 11 6.77758 11 7.06152V8H7V9.88086C7.23483 9.79775 7.4867 9.75 7.75 9.75C8.99263 9.75001 10 10.7574 10 12C9.99999 13.2426 8.99263 14.25 7.75 14.25C7.48658 14.25 7.23492 14.2013 7 14.1182V16H11V16.9385C11 17.2224 10.8631 17.4838 10.7158 17.7266C10.5789 17.9521 10.5 18.2167 10.5 18.5C10.5 19.3284 11.1716 20 12 20C12.8284 20 13.5 19.3284 13.5 18.5C13.5 18.2167 13.4211 17.9521 13.2842 17.7266C13.1369 17.4838 13 17.2224 13 16.9385V16H17V14.1182C16.7651 14.2013 16.5134 14.25 16.25 14.25C15.0074 14.25 14 13.2426 14 12C14 10.7574 15.0074 9.75 16.25 9.75C16.5133 9.75 16.7652 9.79775 17 9.88086V8H13V7.06152C13 6.77758 13.1369 6.51619 13.2842 6.27344C13.4211 6.04789 13.5 5.78327 13.5 5.5C13.5 4.67157 12.8284 4 12 4Z" fill="black"/>
</svg>
